austria/municipalities/70212.svg

<?xml version="1.0" encoding="UTF-8"?>
<!DOCTYPE svg PUBLIC "-//W3C//DTD SVG 1.1//EN" "http://www.w3.org/Graphics/SVG/1.1/DTD/svg11.dtd">
<svg xmlns="http://www.w3.org/2000/svg" version="1.1" width="166px" height="192px" style="shape-rendering:geometricPrecision; text-rendering:geometricPrecision; image-rendering:optimizeQuality; fill-rule:evenodd; clip-rule:evenodd" xmlns:xlink="http://www.w3.org/1999/xlink">
<g><path style="opacity:1" fill="#150e0b" d="M -0.5,-0.5 C 54.8333,-0.5 110.167,-0.5 165.5,-0.5C 165.5,39.8333 165.5,80.1667 165.5,120.5C 156.594,160.073 132.261,183.74 92.5,191.5C 85.5,191.5 78.5,191.5 71.5,191.5C 31.8782,183.212 7.87818,159.212 -0.5,119.5C -0.5,79.5 -0.5,39.5 -0.5,-0.5 Z"/></g>
<g><path style="opacity:1" fill="#fcfcfc" d="M 3.5,3.5 C 29.8333,3.5 56.1667,3.5 82.5,3.5C 82.5,64.8333 82.5,126.167 82.5,187.5C 49.009,186.169 24.8423,170.502 10,140.5C 6.89814,132.426 4.89814,124.093 4,115.5C 3.50001,78.1682 3.33335,40.8348 3.5,3.5 Z"/></g>
<g><path style="opacity:1" fill="#d73023" d="M 83.5,3.5 C 109.5,3.5 135.5,3.5 161.5,3.5C 161.667,41.8348 161.5,80.1681 161,118.5C 154.294,156.873 131.794,179.706 93.5,187C 90.1832,187.498 86.8499,187.665 83.5,187.5C 83.5,126.167 83.5,64.8333 83.5,3.5 Z"/></g>
<g><path style="opacity:1" fill="#18592a" d="M 59.5,71.5 C 58.5386,73.2646 58.2053,75.2646 58.5,77.5C 56.6916,77.4914 55.0249,77.9914 53.5,79C 52.1111,80.9571 50.6111,82.7904 49,84.5C 45.3333,81.8333 41.6667,81.8333 38,84.5C 36.3889,82.7904 34.8889,80.9571 33.5,79C 31.9751,77.9914 30.3084,77.4914 28.5,77.5C 28.7947,75.2646 28.4614,73.2646 27.5,71.5C 28.8484,70.3994 30.3484,69.3994 32,68.5C 32.3333,67.5 32.6667,66.5 33,65.5C 35.2167,68.4951 37.0501,68.6617 38.5,66C 37.7245,63.1776 37.0579,60.3443 36.5,57.5C 39.4206,57.8541 41.7539,56.8541 43.5,54.5C 45.1311,56.2974 47.1311,57.4641 49.5,58C 49.0152,61.3931 49.0152,64.8931 49.5,68.5C 51.2581,67.8721 52.7581,66.8721 54,65.5C 55.0209,68.3501 56.8542,70.3501 59.5,71.5 Z"/></g>
<g><path style="opacity:1" fill="#121511" d="M 59.5,71.5 C 56.8542,70.3501 55.0209,68.3501 54,65.5C 52.7581,66.8721 51.2581,67.8721 49.5,68.5C 49.0152,64.8931 49.0152,61.3931 49.5,58C 47.1311,57.4641 45.1311,56.2974 43.5,54.5C 41.7539,56.8541 39.4206,57.8541 36.5,57.5C 37.0579,60.3443 37.7245,63.1776 38.5,66C 37.0501,68.6617 35.2167,68.4951 33,65.5C 32.6667,66.5 32.3333,67.5 32,68.5C 30.3484,69.3994 28.8484,70.3994 27.5,71.5C 26.7109,71.2172 26.0442,70.7172 25.5,70C 29.5371,69.2058 31.7038,66.7058 32,62.5C 33.1667,63.6667 34.3333,64.8333 35.5,66C 36.3317,66.6877 36.9984,66.521 37.5,65.5C 35.8954,62.6862 34.8954,59.6862 34.5,56.5C 39.0739,56.9347 42.0739,54.9347 43.5,50.5C 44.9261,54.9347 47.9261,56.9347 52.5,56.5C 52.1046,59.6862 51.1046,62.6862 49.5,65.5C 50.0016,66.521 50.6683,66.6877 51.5,66C 52.6667,64.8333 53.8333,63.6667 55,62.5C 55.2962,66.7058 57.4629,69.2058 61.5,70C 60.9558,70.7172 60.2891,71.2172 59.5,71.5 Z"/></g>
<g><path style="opacity:1" fill="#181917" d="M 27.5,71.5 C 28.4614,73.2646 28.7947,75.2646 28.5,77.5C 30.3084,77.4914 31.9751,77.9914 33.5,79C 34.8889,80.9571 36.3889,82.7904 38,84.5C 41.6667,81.8333 45.3333,81.8333 49,84.5C 50.6111,82.7904 52.1111,80.9571 53.5,79C 55.0249,77.9914 56.6916,77.4914 58.5,77.5C 58.2053,75.2646 58.5386,73.2646 59.5,71.5C 59.3184,73.5914 59.6518,75.5914 60.5,77.5C 56.156,78.165 53.156,80.4984 51.5,84.5C 52.3481,85.9911 53.6814,86.6578 55.5,86.5C 58.6325,86.0455 60.9658,84.3788 62.5,81.5C 63.2975,81.9569 63.6309,82.6236 63.5,83.5C 61.66,85.168 59.66,86.668 57.5,88C 55.765,88.6514 54.0983,88.4847 52.5,87.5C 51.6858,89.7662 51.1858,92.0995 51,94.5C 49.2552,95.9557 47.4219,97.289 45.5,98.5C 48.4323,101.761 49.099,105.428 47.5,109.5C 49.7254,111.11 52.0587,112.443 54.5,113.5C 52.9799,117.466 51.6466,117.3 50.5,113C 48.7795,112.261 47.1128,111.427 45.5,110.5C 48.7698,106.061 48.1032,102.395 43.5,99.5C 38.8968,102.395 38.2302,106.061 41.5,110.5C 38.1125,111.348 35.7791,113.348 34.5,116.5C 33.5748,115.643 32.9081,114.643 32.5,113.5C 34.9413,112.443 37.2746,111.11 39.5,109.5C 37.901,105.428 38.5677,101.761 41.5,98.5C 39.5781,97.289 37.7448,95.9557 36,94.5C 35.8142,92.0995 35.3142,89.7662 34.5,87.5C 30.5422,88.8673 27.2089,87.8673 24.5,84.5C 22.8273,86.0863 20.8273,86.7529 18.5,86.5C 18.7076,88.9201 18.3742,91.2534 17.5,93.5C 18.8333,94.5 20.1667,95.5 21.5,96.5C 21.0233,97.4776 20.3567,98.3109 19.5,99C 16.8333,99.3333 14.1667,99.6667 11.5,100C 12.1253,102.8 12.792,105.634 13.5,108.5C 15.7721,109.441 17.7721,110.774 19.5,112.5C 20.8545,110.479 22.5212,108.812 24.5,107.5C 22.9335,110.283 21.1001,112.949 19,115.5C 16.9102,111.176 13.4102,109.343 8.5,110C 11.6716,106.639 12.3382,102.805 10.5,98.5C 13.5219,98.196 16.5219,97.696 19.5,97C 17.4534,95.9274 15.4534,94.7607 13.5,93.5C 14.7598,92.6184 15.9264,91.6184 17,90.5C 16.7821,88.4132 16.9488,86.4132 17.5,84.5C 20.4096,85.2972 22.743,84.2972 24.5,81.5C 26.7698,86.2313 30.2698,87.5646 35,85.5C 35.1652,83.322 34.3318,81.4886 32.5,80C 30.3686,79.4569 28.3686,78.6236 26.5,77.5C 27.3482,75.5914 27.6816,73.5914 27.5,71.5 Z"/></g>
<g><path style="opacity:1" fill="#fbfbfb" d="M 42.5,83.5 C 49.2645,84.4492 51.2645,88.1159 48.5,94.5C 42.9881,98.585 39.3215,97.2517 37.5,90.5C 37.6667,89.1667 37.8333,87.8333 38,86.5C 39.6516,85.6006 41.1516,84.6006 42.5,83.5 Z"/></g>
<g><path style="opacity:1" fill="#185a2a" d="M 32.5,113.5 C 31.3646,111.787 29.698,111.12 27.5,111.5C 27.5,109.833 27.5,108.167 27.5,106.5C 26.209,106.263 25.209,106.596 24.5,107.5C 22.5212,108.812 20.8545,110.479 19.5,112.5C 17.7721,110.774 15.7721,109.441 13.5,108.5C 12.792,105.634 12.1253,102.8 11.5,100C 14.1667,99.6667 16.8333,99.3333 19.5,99C 20.3567,98.3109 21.0233,97.4776 21.5,96.5C 20.1667,95.5 18.8333,94.5 17.5,93.5C 18.3742,91.2534 18.7076,88.9201 18.5,86.5C 20.8273,86.7529 22.8273,86.0863 24.5,84.5C 27.2089,87.8673 30.5422,88.8673 34.5,87.5C 35.3142,89.7662 35.8142,92.0995 36,94.5C 37.7448,95.9557 39.5781,97.289 41.5,98.5C 38.5677,101.761 37.901,105.428 39.5,109.5C 37.2746,111.11 34.9413,112.443 32.5,113.5 Z"/></g>
<g><path style="opacity:1" fill="#185a2a" d="M 63.5,83.5 C 64.0483,86.0838 65.715,87.0838 68.5,86.5C 68.3801,88.7345 68.7135,90.9011 69.5,93C 68.3867,94.3943 67.0534,95.561 65.5,96.5C 65.9767,97.4776 66.6433,98.3109 67.5,99C 69.8098,99.4966 72.1432,99.6633 74.5,99.5C 74.8174,102.572 74.4841,105.572 73.5,108.5C 71.4835,109.174 69.8168,110.341 68.5,112C 66.487,110.862 64.487,109.362 62.5,107.5C 61.791,106.596 60.791,106.263 59.5,106.5C 59.5,108.167 59.5,109.833 59.5,111.5C 57.302,111.12 55.6354,111.787 54.5,113.5C 52.0587,112.443 49.7254,111.11 47.5,109.5C 49.099,105.428 48.4323,101.761 45.5,98.5C 47.4219,97.289 49.2552,95.9557 51,94.5C 51.1858,92.0995 51.6858,89.7662 52.5,87.5C 54.0983,88.4847 55.765,88.6514 57.5,88C 59.66,86.668 61.66,85.168 63.5,83.5 Z"/></g>
<g><path style="opacity:1" fill="#181b17" d="M 63.5,83.5 C 65.3742,85.1284 67.3742,85.4618 69.5,84.5C 70.0512,86.4132 70.2179,88.4132 70,90.5C 71.0736,91.6184 72.2402,92.6184 73.5,93.5C 71.5466,94.7607 69.5466,95.9274 67.5,97C 70.4781,97.696 73.4781,98.196 76.5,98.5C 74.6618,102.805 75.3284,106.639 78.5,110C 73.5898,109.343 70.0898,111.176 68,115.5C 65.8999,112.949 64.0665,110.283 62.5,107.5C 64.487,109.362 66.487,110.862 68.5,112C 69.8168,110.341 71.4835,109.174 73.5,108.5C 74.4841,105.572 74.8174,102.572 74.5,99.5C 72.1432,99.6633 69.8098,99.4966 67.5,99C 66.6433,98.3109 65.9767,97.4776 65.5,96.5C 67.0534,95.561 68.3867,94.3943 69.5,93C 68.7135,90.9011 68.3801,88.7345 68.5,86.5C 65.715,87.0838 64.0483,86.0838 63.5,83.5 Z"/></g>
<g><path style="opacity:1" fill="#131312" d="M 24.5,107.5 C 25.209,106.596 26.209,106.263 27.5,106.5C 27.5,108.167 27.5,109.833 27.5,111.5C 29.698,111.12 31.3646,111.787 32.5,113.5C 30.1278,112.086 27.9612,112.42 26,114.5C 25.3131,112.432 25.4798,110.432 26.5,108.5C 26.0431,107.702 25.3764,107.369 24.5,107.5 Z"/></g>
<g><path style="opacity:1" fill="#201f1e" d="M 62.5,107.5 C 61.6236,107.369 60.9569,107.702 60.5,108.5C 61.5202,110.432 61.6869,112.432 61,114.5C 58.9592,113.577 56.7925,113.244 54.5,113.5C 55.6354,111.787 57.302,111.12 59.5,111.5C 59.5,109.833 59.5,108.167 59.5,106.5C 60.791,106.263 61.791,106.596 62.5,107.5 Z"/></g>
<g><path style="opacity:1" fill="#fdfdfd" d="M -0.5,119.5 C 7.87818,159.212 31.8782,183.212 71.5,191.5C 47.5,191.5 23.5,191.5 -0.5,191.5C -0.5,167.5 -0.5,143.5 -0.5,119.5 Z"/></g>
<g><path style="opacity:1" fill="#fdfdfd" d="M 165.5,120.5 C 165.5,144.167 165.5,167.833 165.5,191.5C 141.167,191.5 116.833,191.5 92.5,191.5C 132.261,183.74 156.594,160.073 165.5,120.5 Z"/></g>
</svg>

<svg xmlns="http://www.w3.org/2000/svg" width="166" height="192" style="shape-rendering:geometricPrecision;text-rendering:geometricPrecision;image-rendering:optimizeQuality;fill-rule:evenodd;clip-rule:evenodd"><path style="opacity:1" fill="#150e0b" d="M-.5-.5h166v121c-8.906 39.573-33.239 63.24-73 71h-21c-39.622-8.288-63.622-32.288-72-72V-.5z"/><path style="opacity:1" fill="#fcfcfc" d="M3.5 3.5h79v184c-33.491-1.331-57.658-16.998-72.5-47a97.745 97.745 0 0 1-6-25c-.5-37.332-.667-74.665-.5-112z"/><path style="opacity:1" fill="#d73023" d="M83.5 3.5h78c.167 38.335 0 76.668-.5 115-6.706 38.373-29.206 61.206-67.5 68.5-3.317.498-6.65.665-10 .5V3.5z"/><path style="opacity:1" fill="#18592a" d="M59.5 71.5c-.961 1.765-1.295 3.765-1 6-1.808-.009-3.475.491-5 1.5a51.272 51.272 0 0 1-4.5 5.5c-3.667-2.667-7.333-2.667-11 0a51.272 51.272 0 0 1-4.5-5.5c-1.525-1.009-3.192-1.509-5-1.5.295-2.235-.039-4.235-1-6 1.348-1.1 2.848-2.1 4.5-3l1-3c2.217 2.995 4.05 3.162 5.5.5a117.258 117.258 0 0 1-2-8.5c2.92.354 5.254-.646 7-3 1.631 1.797 3.631 2.964 6 3.5-.485 3.393-.485 6.893 0 10.5a10.937 10.937 0 0 0 4.5-3c1.02 2.85 2.854 4.85 5.5 6z"/><path style="opacity:1" fill="#121511" d="M59.5 71.5c-2.646-1.15-4.48-3.15-5.5-6a10.937 10.937 0 0 1-4.5 3c-.485-3.607-.485-7.107 0-10.5-2.369-.536-4.369-1.703-6-3.5-1.746 2.354-4.08 3.354-7 3a117.258 117.258 0 0 0 2 8.5c-1.45 2.662-3.283 2.495-5.5-.5l-1 3c-1.652.9-3.152 1.9-4.5 3-.79-.283-1.456-.783-2-1.5 4.037-.794 6.204-3.294 6.5-7.5l3.5 3.5c.832.688 1.498.521 2-.5a23.954 23.954 0 0 1-3-9c4.574.435 7.574-1.565 9-6 1.426 4.435 4.426 6.435 9 6a23.954 23.954 0 0 1-3 9c.502 1.021 1.168 1.188 2 .5l3.5-3.5c.296 4.206 2.463 6.706 6.5 7.5-.544.717-1.21 1.217-2 1.5z"/><path style="opacity:1" fill="#181917" d="M27.5 71.5c.961 1.765 1.295 3.765 1 6 1.808-.009 3.475.491 5 1.5a51.272 51.272 0 0 0 4.5 5.5c3.667-2.667 7.333-2.667 11 0a51.272 51.272 0 0 0 4.5-5.5c1.525-1.009 3.192-1.509 5-1.5-.295-2.235.039-4.235 1-6a11.989 11.989 0 0 0 1 6c-4.344.665-7.344 2.998-9 7 .848 1.491 2.181 2.158 4 2 3.133-.454 5.466-2.121 7-5 .797.457 1.13 1.124 1 2a40.775 40.775 0 0 1-6 4.5c-1.735.651-3.402.485-5-.5a26.706 26.706 0 0 0-1.5 7 51.095 51.095 0 0 1-5.5 4c2.932 3.261 3.599 6.928 2 11a37.003 37.003 0 0 0 7 4c-1.52 3.966-2.853 3.8-4-.5a48.195 48.195 0 0 1-5-2.5c3.27-4.439 2.603-8.105-2-11-4.603 2.895-5.27 6.561-2 11-3.388.848-5.72 2.848-7 6a7.468 7.468 0 0 1-2-3 37.003 37.003 0 0 0 7-4c-1.599-4.072-.932-7.739 2-11a51.095 51.095 0 0 1-5.5-4 26.706 26.706 0 0 0-1.5-7c-3.958 1.367-7.291.367-10-3-1.673 1.586-3.673 2.253-6 2a15.42 15.42 0 0 1-1 7l4 3a7.253 7.253 0 0 1-2 2.5l-8 1c.625 2.8 1.292 5.634 2 8.5a18.329 18.329 0 0 1 6 4 17.854 17.854 0 0 1 5-5 55.11 55.11 0 0 1-5.5 8c-2.09-4.324-5.59-6.157-10.5-5.5 3.172-3.361 3.838-7.195 2-11.5a70.529 70.529 0 0 0 9-1.5 76.832 76.832 0 0 1-6-3.5 23.591 23.591 0 0 0 3.5-3c-.218-2.087-.051-4.087.5-6 2.91.797 5.243-.203 7-3 2.27 4.731 5.77 6.065 10.5 4 .165-2.178-.668-4.011-2.5-5.5a22.23 22.23 0 0 1-6-2.5 11.989 11.989 0 0 0 1-6z"/><path style="opacity:1" fill="#fbfbfb" d="M42.5 83.5c6.764.95 8.764 4.616 6 11-5.512 4.085-9.178 2.752-11-4l.5-4c1.652-.9 3.152-1.9 4.5-3z"/><path style="opacity:1" fill="#185a2a" d="M32.5 113.5c-1.135-1.713-2.802-2.38-5-2v-5c-1.291-.237-2.291.096-3 1a17.854 17.854 0 0 0-5 5 18.329 18.329 0 0 0-6-4c-.708-2.866-1.375-5.7-2-8.5l8-1a7.253 7.253 0 0 0 2-2.5l-4-3a15.42 15.42 0 0 0 1-7c2.327.253 4.327-.414 6-2 2.709 3.367 6.042 4.367 10 3a26.706 26.706 0 0 1 1.5 7 51.095 51.095 0 0 0 5.5 4c-2.932 3.261-3.599 6.928-2 11a37.003 37.003 0 0 1-7 4zM63.5 83.5c.548 2.584 2.215 3.584 5 3a15.902 15.902 0 0 0 1 6.5 15.007 15.007 0 0 1-4 3.5 7.253 7.253 0 0 0 2 2.5c2.31.497 4.643.663 7 .5a21.12 21.12 0 0 1-1 9 10.504 10.504 0 0 0-5 3.5c-2.013-1.138-4.013-2.638-6-4.5-.709-.904-1.709-1.237-3-1v5c-2.198-.38-3.865.287-5 2a37.003 37.003 0 0 1-7-4c1.599-4.072.932-7.739-2-11a51.095 51.095 0 0 0 5.5-4c.186-2.4.686-4.734 1.5-7 1.598.985 3.265 1.151 5 .5a40.775 40.775 0 0 0 6-4.5z"/><path style="opacity:1" fill="#181b17" d="M63.5 83.5c1.874 1.628 3.874 1.962 6 1 .551 1.913.718 3.913.5 6a23.591 23.591 0 0 0 3.5 3 76.832 76.832 0 0 1-6 3.5 70.529 70.529 0 0 0 9 1.5c-1.838 4.305-1.172 8.139 2 11.5-4.91-.657-8.41 1.176-10.5 5.5a55.11 55.11 0 0 1-5.5-8c1.987 1.862 3.987 3.362 6 4.5a10.504 10.504 0 0 1 5-3.5 21.12 21.12 0 0 0 1-9 24.939 24.939 0 0 1-7-.5 7.253 7.253 0 0 1-2-2.5 15.007 15.007 0 0 0 4-3.5 15.902 15.902 0 0 1-1-6.5c-2.785.584-4.452-.416-5-3z"/><path style="opacity:1" fill="#131312" d="M24.5 107.5c.709-.904 1.709-1.237 3-1v5c2.198-.38 3.865.287 5 2-2.372-1.414-4.539-1.08-6.5 1-.687-2.068-.52-4.068.5-6-.457-.798-1.124-1.131-2-1z"/><path style="opacity:1" fill="#201f1e" d="M62.5 107.5c-.876-.131-1.543.202-2 1 1.02 1.932 1.187 3.932.5 6-2.04-.923-4.208-1.256-6.5-1 1.135-1.713 2.802-2.38 5-2v-5c1.291-.237 2.291.096 3 1z"/><path style="opacity:1" fill="#fdfdfd" d="M-.5 119.5c8.378 39.712 32.378 63.712 72 72h-72v-72zM165.5 120.5v71h-73c39.761-7.76 64.094-31.427 73-71z"/></svg>
